X:426
T: "Die hohe Blume"
N: Z1106
O: Europa, Mitteleuropa, Deutschland, Hessen
R: Romanze, Ballade
M: 6/8
L: 1/16
K: Ab
E2 | A4B2c4e2 | c2B2c2A4
cd | e4f2e4g2 | a2f2g2a4
cd | e4d2c2B2c2 | A2G2A2B4
cd | e4d2c2B2c2 | E2F2G2A4

@@@ Tune index: 10184
